apps/app.mento.org/public/tokens/CADm.svg

<svg width="220" height="220" viewBox="0 0 220 220" fill="none" xmlns="http://www.w3.org/2000/svg">
<path d="M110 220C170.751 220 220 170.751 220 110C220 49.2487 170.751 0 110 0C49.2487 0 0 49.2487 0 110C0 170.751 49.2487 220 110 220Z" fill="#510DC1"/>
<path d="M110 23C158.049 23 197 61.9512 197 110C197 158.049 158.049 197 110 197C61.9512 197 23 158.049 23 110C23 61.9512 61.9512 23 110 23Z" stroke="url(#paint0_linear_2057_323)" stroke-width="36"/>
<path d="M110 202C160.81 202 202 160.81 202 110C202 59.1898 160.81 18 110 18C59.1898 18 18 59.1898 18 110C18 160.81 59.1898 202 110 202Z" fill="#510DC1"/>
<path d="M143.648 159V148.359C127.903 146.926 117.475 138.229 117.066 122.574H130.664C130.971 131.885 136.594 135.773 143.648 136.899V115.309C126.983 111.932 119.009 105.896 119.009 93.0032C119.009 81.5433 128.721 73.3576 143.648 72.539V62H151.418V72.6414C167.776 74.2785 175.649 83.692 176.16 97.096H162.869C162.46 89.6266 158.882 85.3291 151.418 84.1013V104.054C172.377 108.044 178 114.9 178 126.155C178 139.661 167.163 147.642 151.418 148.461V159H143.648ZM133.118 92.5939C133.118 97.096 134.753 99.8587 143.648 102.314V83.7943C137.207 84.5106 133.118 87.7848 133.118 92.5939ZM151.418 137.206C158.882 136.489 163.891 132.908 163.891 126.769C163.891 122.267 161.744 119.607 151.418 116.946V137.206Z" fill="url(#paint1_linear_2057_323)"/>
<path d="M78.3966 148.57C54.473 148.57 42 131.175 42 110.507C42 89.8379 54.473 72.4434 78.3966 72.4434C96.4927 72.4434 108.352 84.0056 110.806 99.456H96.9017C95.0614 90.7588 88.3137 84.7218 78.3966 84.7218C62.9587 84.7218 56.3133 96.591 56.3133 110.507C56.3133 124.422 62.9587 136.291 78.3966 136.291C89.0294 136.291 95.6748 129.231 97.3106 119.613H111.113C109.17 136.087 97.3106 148.57 78.3966 148.57Z" fill="url(#paint2_linear_2057_323)"/>
<defs>
<linearGradient id="paint0_linear_2057_323" x1="110" y1="5" x2="110" y2="215" gradientUnits="userSpaceOnUse">
<stop stop-color="#FF0000"/>
<stop offset="0.509615" stop-color="white"/>
<stop offset="1" stop-color="#FF0000"/>
</linearGradient>
<linearGradient id="paint1_linear_2057_323" x1="147.533" y1="62" x2="147.533" y2="159" gradientUnits="userSpaceOnUse">
<stop stop-color="#E2DBFF"/>
<stop offset="0.975962" stop-color="#FBFAFF"/>
</linearGradient>
<linearGradient id="paint2_linear_2057_323" x1="76.5564" y1="72.4434" x2="76.5564" y2="148.57" gradientUnits="userSpaceOnUse">
<stop stop-color="#E2DBFF"/>
<stop offset="0.975962" stop-color="#FBFAFF"/>
</linearGradient>
</defs>
</svg>

<svg xmlns="http://www.w3.org/2000/svg" width="220" height="220" fill="none" viewBox="0 0 220 220"><path fill="#510dc1" d="M110 220c60.751 0 110-49.249 110-110S170.751 0 110 0 0 49.249 0 110s49.249 110 110 110"/><path stroke="url(#a)" stroke-width="36" d="M110 23c48.049 0 87 38.951 87 87s-38.951 87-87 87-87-38.951-87-87 38.951-87 87-87Z"/><path fill="#510dc1" d="M110 202c50.81 0 92-41.19 92-92s-41.19-92-92-92-92 41.19-92 92 41.19 92 92 92"/><path fill="url(#b)" d="M143.648 159v-10.641c-15.745-1.433-26.173-10.13-26.582-25.785h13.598c.307 9.311 5.93 13.199 12.984 14.325v-21.59c-16.665-3.377-24.639-9.413-24.639-22.306 0-11.46 9.712-19.645 24.639-20.464V62h7.77v10.641c16.358 1.637 24.231 11.051 24.742 24.455h-13.291c-.409-7.47-3.987-11.767-11.451-12.995v19.953C172.377 108.044 178 114.9 178 126.155c0 13.506-10.837 21.487-26.582 22.306V159zm-10.53-66.406c0 4.502 1.635 7.265 10.53 9.72v-18.52c-6.441.717-10.53 3.99-10.53 8.8m18.3 44.612c7.464-.717 12.473-4.298 12.473-10.437 0-4.502-2.147-7.162-12.473-9.823z"/><path fill="url(#c)" d="M78.397 148.57C54.473 148.57 42 131.175 42 110.507c0-20.67 12.473-38.064 36.397-38.064 18.096 0 29.955 11.563 32.409 27.013H96.902c-1.84-8.697-8.588-14.734-18.505-14.734-15.438 0-22.084 11.869-22.084 25.785 0 13.915 6.646 25.784 22.084 25.784 10.632 0 17.278-7.06 18.914-16.678h13.802c-1.943 16.474-13.802 28.957-32.716 28.957"/><defs><linearGradient id="a" x1="110" x2="110" y1="5" y2="215" gradientUnits="userSpaceOnUse"><stop stop-color="red"/><stop offset=".51" stop-color="#fff"/><stop offset="1" stop-color="red"/></linearGradient><linearGradient id="b" x1="147.533" x2="147.533" y1="62" y2="159" gradientUnits="userSpaceOnUse"><stop stop-color="#e2dbff"/><stop offset=".976" stop-color="#fbfaff"/></linearGradient><linearGradient id="c" x1="76.556" x2="76.556" y1="72.443" y2="148.57" gradientUnits="userSpaceOnUse"><stop stop-color="#e2dbff"/><stop offset=".976" stop-color="#fbfaff"/></linearGradient></defs></svg>
